X:1
T:100 Progressive Recreations No. 2
T:100 Progressive Recreations No. 2
T:C. CZERNY
T:Public Domain
C:C. CZERNY
Z:Public Domain
%%score { 1 | 2 }
L:1/8
M:3/4
K:C
V:1 treble nm="Piano" snm="Pno."
V:2 treble 
V:1
 !1!c2 !2!d2 !3!e2 | !3!e2 e2 e2 | !2!d2 !3!e2 !4!f2 | !4!f2 f2 f2 | !3!e2 !4!f2 g2 | g2 g2 g2 | %6
 !5!f2 !4!e2 !2!d2 | !1!c6 :: !2!d2 !3!e2 !4!f2 | !4!f2 !3!e2 !2!d2 | !3!e2 !5!g2 !4!f2 | %11
 !3!e2 !2!d2 !1!c2 | !2!d2 !3!e2 !4!f2 | !4!f2 !3!e2 !2!d2 | !3!e2 !5!g2 !4!f2 | %15
 !3!e2 !2!d2 !1!c2 | !1!c2 !2!d2 !3!e2 | e2 e2 e2 | !2!d2 !3!e2 !4!f2 | f2 f2 f2 | %20
 !3!e2 !4!f2 !5!g2 | g2 g2 g2 | !5!g2 !4!f2 !2!d2 | !1!c6 :| %24
V:2
 !5!C6 | C6 | !1!G6 | G6 | !5!C6 | !3!E6 | !1!G6 | !5!C6 :: !1!G6 | G6 | !5!C6 | C4 !3!E2 | G6 | %13
 G6 | C6 | z6 | C6 | C6 | G6 | G6 | C6 | !3!E6 | G4 G2 | C6 :| %24

